src/assets/images/montaña_001.svg

<?xml version="1.0" encoding="UTF-8"?>
<svg width="1476px" height="608px" viewBox="0 0 1476 608" preserveAspectRatio="xMidYMin slice" version="1.1" xmlns="http://www.w3.org/2000/svg" xmlns:xlink="http://www.w3.org/1999/xlink">
    <!-- Generator: Sketch 52.2 (67145) - http://www.bohemiancoding.com/sketch -->
    <title>Fill 1</title>
    <desc>Created with Sketch.</desc>
    <g id="SVG" stroke="none" stroke-width="1" fill="none" fill-rule="evenodd">
        <path d="M0,165.804617 C0,165.804617 15.3280884,169.937901 31.9639814,165.804617 L48.6015907,161.671332 C48.6015907,161.671332 68.5653488,159.605755 77.7148326,155.472471 C86.8660326,151.341318 104.334321,149.27361 115.148595,147.208033 C125.96287,145.140325 154.245433,143.074748 167.555177,137.909741 C180.864921,132.742602 202.491753,131.71088 212.473633,129.643172 C222.455512,127.577595 257.393805,122.412588 259.056879,119.311026 C260.72167,116.211595 262.384744,112.080442 269.038758,113.112164 C275.694488,114.146019 280.685428,112.080442 293.162777,106.913303 C305.640126,101.748296 307.304916,95.5494348 314.791326,96.5832889 C322.277735,97.6150114 324.773205,82.4013687 345.569358,87.9415477 L366.365512,93.4838583 C366.365512,93.4838583 397.97594,82.1178582 412.948758,79.0184276 C427.921577,75.918997 447.885335,53.1891285 463.690549,39.757552 C479.495763,26.3259754 502.787386,11.8626764 508.610721,8.76324573 L514.43234,5.66381511 C514.43234,5.66381511 527.742084,2.56438448 541.884223,5.66381511 C556.024647,8.76324573 577.653195,9.10857431 584.307209,4.28676409 C590.96294,-0.535046139 603.440288,-2.25742574 622.573367,4.28676409 C641.70473,10.8288223 665.828749,0 665.828749,0 L669.987293,0 C669.987293,0 708.251735,4.62996101 729.880284,29.4275377 C751.508833,54.2229826 779.791395,63.5212745 779.791395,63.5212745 C779.791395,63.5212745 789.773274,71.7857123 793.10114,68.6862817 C796.427288,65.586851 804.746093,52.0444282 837.1872,45.3851289 C869.630023,38.7258295 889.593781,45.3851289 889.593781,45.3851289 C889.593781,45.3851289 889.593781,46.9902673 907.06207,59.3879898 C924.532074,71.7857123 929.523014,87.5898241 942.832758,83.8210529 C956.140786,80.0522817 976.93694,77.9845735 988.583609,79.0184276 C1000.22856,80.0522817 1005.2195,81.0840042 1021.02472,77.9845735 C1036.82993,74.8851429 1051.80275,82.1178582 1058.45848,79.0184276 C1065.11249,75.918997 1077.58984,83.4330912 1085.90865,87.9415477 C1094.22745,92.4500042 1110.03267,110.296244 1138.31523,87.9415477 C1166.59779,65.586851 1203.19916,110.012734 1223.99531,122.412588 C1244.79147,134.81031 1254.77334,148.239755 1270.57856,155.472471 L1286.38377,162.705186 C1286.38377,162.705186 1298.86112,184.4012 1318.82488,173.037332 L1338.78864,161.671332 C1338.78864,161.671332 1363.74505,167.870193 1370.39907,164.770763 C1377.05308,161.671332 1385.37188,159.605755 1392.85829,160.63961 C1400.3447,161.671332 1413.65445,165.804617 1421.97325,167.870193 C1430.29206,169.937901 1436.11539,164.770763 1445.26487,166.838471 C1454.41607,168.904047 1461.07009,175.102909 1463.56556,172.003478 C1466.06103,168.904047 1476,167.870193 1476,167.870193 L1476,608 L738,608 L0,608 L0,165.804617 Z" id="Fill-1" fill="#48024B"></path>
    </g>
</svg>

<svg width="1476" height="608" viewBox="0 0 1476 608" preserveAspectRatio="xMidYMin slice" 
    xmlns="http://www.w3.org/2000/svg">
    <path d="M0 165.805s15.328 4.133 31.964 0l16.638-4.134s19.963-2.065 29.113-6.199c9.151-4.13 26.62-6.198 37.434-8.264 10.814-2.068 39.096-4.133 52.406-9.298 13.31-5.167 34.937-6.2 44.919-8.267 9.982-2.065 44.92-7.23 46.583-10.332 1.665-3.1 3.328-7.23 9.982-6.199 6.655 1.034 11.646-1.032 24.124-6.199 12.477-5.165 14.142-11.364 21.628-10.33 7.487 1.032 9.982-14.182 30.778-8.641l20.797 5.542s31.61-11.366 46.583-14.466c14.973-3.099 34.936-25.829 50.742-39.26 15.805-13.432 39.096-27.895 44.92-30.995l5.821-3.1s13.31-3.099 27.452 0c14.14 3.1 35.77 3.446 42.423-1.376 6.656-4.822 19.133-6.544 38.266 0C641.705 10.829 665.83 0 665.83 0h4.158s38.265 4.63 59.893 29.428c21.629 24.795 49.911 34.093 49.911 34.093s9.982 8.265 13.31 5.165c3.326-3.1 11.645-16.642 44.086-23.3 32.443-6.66 52.407 0 52.407 0s0 1.604 17.468 14.002c17.47 12.398 22.461 28.202 35.77 24.433 13.309-3.769 34.105-5.836 45.752-4.803 11.645 1.034 16.636 2.066 32.44-1.033 15.806-3.1 30.779 4.133 37.434 1.033 6.654-3.099 19.132 4.415 27.45 8.924 8.32 4.508 24.125 22.354 52.407 0 28.283-22.355 64.884 22.07 85.68 34.47 20.796 12.398 30.778 25.828 46.584 33.06l15.805 7.233s12.477 21.696 32.44 10.332l19.965-11.366s24.956 6.2 31.61 3.1 14.973-5.165 22.46-4.131c7.486 1.031 20.795 5.165 29.114 7.23 8.32 2.068 14.142-3.1 23.292-1.032 9.151 2.066 15.805 8.265 18.3 5.165 2.496-3.099 12.435-4.133 12.435-4.133V608H0V165.805z" fill="#48024B" fill-rule="evenodd"/>
</svg>
